!!!COM: Debussy, (Achille-)Claude
!!!OTL: Jeux (Games), Ballet in One Act for Orchestra
!!!OMV:
!!!example: 158
!!!work: Deb-40
**kern	**dynam	**kern	**dynam	**kern	**dynam	**kern	**dynam	**kern	**dynam	**kern	**dynam	**kern	**dynam	**kern	**dynam	**kern	**dynam	**kern	**kern	**dynam	**kern	**kern	**dynam	**kern	**dynam	**kern	**dynam	**kern	**dynam	**kern	**dynam	**kern	**dynam	**kern	**dynam
*part17	*part17	*part16	*part16	*part15	*part15	*part14	*part14	*part13	*part13	*part12	*part12	*part11	*part11	*part10	*part10	*part9	*part9	*part8	*part8	*part8	*part7	*part7	*part7	*part6	*part6	*part5	*part5	*part4	*part4	*part3	*part3	*part2	*part2	*part1	*part1
*staff19	*	*staff18	*	*staff17	*	*staff16	*	*staff15	*	*staff14	*	*staff13	*	*staff12	*	*staff11	*	*staff10	*staff9	*	*staff8	*staff7	*	*staff6	*	*staff5	*	*staff4	*	*staff3	*	*staff2	*	*staff1	*
*I"Contrabass	*	*I"Violoncello	*	*I"Violoncello	*	*I"Viola	*	*I"Viola	*	*I"Violin II	*	*I"Violin II	*	*I"Violin I	*	*I"Violin I	*	*I"Harp	*	*	*I"Harp	*	*	*I"Cymbals	*	*I"Bass Drum	*	*I"Horn in F	*	*I"Horn in F	*	*I"Clarinet in Bb	*	*I"Flute	*
*I'Cb.	*	*I'Vc.	*	*I'Vc.	*	*I'Vla.	*	*I'Vla.	*	*I'Vln. II	*	*I'Vln. II	*	*I'Vln. I	*	*I'Vln. I	*	*I'Hp.	*	*	*I'Hp.	*	*	*I'Cym.	*	*I'B. D.	*	*I'Hn.	*	*I'Hn.	*	*I'Cl.	*	*I'Fl.	*
*clefF4	*	*clefF4	*	*clefF4	*	*clefC3	*	*clefC3	*	*clefG2	*	*clefG2	*	*clefG2	*	*clefG2	*	*clefF4	*clefG2	*	*clefG2	*clefG2	*	*clefpercussion0	*	*clefpercussion0	*	*clefG2	*	*clefG2	*	*clefG2	*	*clefG2	*
*k[b-e-a-d-g-]	*	*k[b-e-a-d-g-]	*	*k[b-e-a-d-g-]	*	*k[b-e-a-d-g-]	*	*k[b-e-a-d-g-]	*	*k[b-e-a-d-g-]	*	*k[b-e-a-d-g-]	*	*k[b-e-a-d-g-]	*	*k[b-e-a-d-g-]	*	*k[b-e-a-d-g-]	*k[b-e-a-d-g-]	*	*k[b-e-a-d-g-]	*k[b-e-a-d-g-]	*	*	*	*	*	*	*	*	*	*k[b-e-a-d-g-]	*	*k[b-e-a-d-g-]	*
*D-:	*	*D-:	*	*D-:	*	*D-:	*	*D-:	*	*D-:	*	*D-:	*	*D-:	*	*D-:	*	*D-:	*D-:	*	*D-:	*D-:	*	*	*	*	*	*	*	*	*	*D-:	*	*D-:	*
*M3/8	*	*M3/8	*	*M3/8	*	*M3/8	*	*M3/8	*	*M3/8	*	*M3/8	*	*M3/8	*	*M3/8	*	*M3/8	*M3/8	*	*M3/8	*M3/8	*	*M3/8	*	*M3/8	*	*M3/8	*	*M3/8	*	*M3/8	*	*M3/8	*
*MM121	*	*MM121	*	*MM121	*	*MM121	*	*MM121	*	*MM121	*	*MM121	*	*MM121	*	*MM121	*	*MM121	*MM121	*	*MM121	*MM121	*	*MM121	*	*MM121	*	*MM121	*	*MM121	*	*MM121	*	*MM121	*
=335	=	=	=	=	=	=	=	=	=	=	=	=	=	=	=	=	=	=	=	=	=	=	=	=	=	=	=	=	=	=	=	=	=	=	=
*	*	*	*	*	*	*	*	*	*	*	*	*	*	*	*	*	*	*	*	*	*	*8va	*	*	*	*	*	*	*	*	*	*	*	*	*
8D-'^^L	sf	8d-'^^L	sf	8d-'^^L	sf	8G-'^^L 8d-	sf	8cc'^^L 8dd-	sf	8e-'^^L 8an	sf	8ee-'^^L 8aan	sf	8dd-'^^L 8ee-	sf	8ddd-'^^L 8eee-	sf	8G-' 8d-	8dd-' 8ee-	sf	8d-' 8e- 8an	8aan' 8ddd- 8eee-	sf	8r	.	8x~	sf	[8G-X'^L 8e-X	sf	8d-X'^ 8a	sf	8r	.	4.r	.
*	*	*	*	*	*	*	*	*	*	*	*	*	*	*	*	*	*	*	*	*	*	*X8va	*	*	*	*	*	*	*	*	*	*	*	*	*
!LO:TX:t=pizz.	!	!LO:TX:t=pizz.	!	!LO:TX:t=pizz.	!	!LO:TX:t=pizz.	!	!LO:TX:t=pizz.	!	!LO:TX:t=pizz.	!	!LO:TX:t=pizz.	!	!LO:TX:t=pizz.	!	!LO:TX:t=pizz.	!	!	!	!	!	!	!	!	!	!	!	!	!	!	!	!	!	!	!
8GG-'J	p	8G-'J	p	8G-'J	p	8G-'J	p	8G-'J	p	8d-'J	p	8d-'J	p	8e-'J 8an	p	8e-'J 8an	p	8r	8r	.	8r	8r	.	8x'	p	8r	.	8G-_	.	8r	.	16r	.	.	.
.	.	.	.	.	.	.	.	.	.	.	.	.	.	.	.	.	.	.	.	.	.	.	.	.	.	.	.	.	.	.	.	(16ccLL	p	.	.
8r	.	8r	.	8r	.	8r	.	8r	.	8r	.	8r	.	8r	.	8r	.	8r	8r	.	8r	8r	.	8r	.	8r	.	8G-J_	]]	8r	.	16dd-	.	.	.
.	.	.	.	.	.	.	.	.	.	.	.	.	.	.	.	.	.	.	.	.	.	.	.	.	.	.	.	.	.	.	.	16ee-JJ	.	.	.
=336	=336	=336	=336	=336	=336	=336	=336	=336	=336	=336	=336	=336	=336	=336	=336	=336	=336	=336	=336	=336	=336	=336	=336	=336	=336	=336	=336	=336	=336	=336	=336	=336	=336	=336	=336
!	!	!LO:TX:t=arco	!	!	!	!LO:TX:t=arco	!	!	!	!LO:TX:t=arco	!	!	!	!LO:TX:t=arco	!	!	!	!	!	!	!	!	!	!	!	!	!	!	!	!	!	!	!	!	!
4.r	.	16G-'LL	pp	8r	.	16d-'LL	pp	8r	.	16e-'LL	pp	8r	.	16cc'LL	pp	8r	.	4.r	4.r	.	4.r	4.r	.	4.r	.	8r	.	4.G-X_	]	4.r	.	4.ff)	.	8r	.
.	.	16G-'J	.	.	.	16d-'J	.	.	.	16e-'J	.	.	.	16cc'J	.	.	.	.	.	.	.	.	.	.	.	.	.	.	.	.	.	.	.	.	.
.	.	.	.	.	.	.	.	.	.	.	.	.	.	.	.	.	.	.	.	.	.	.	.	.	.	.	.	.	.	.	.	.	.	(8qdd-/	p
.	.	8G-'	.	8G-'	pp	8d-'	.	8d-'	pp	8e-'	.	8e-'	pp	8cc'	.	8cc'	pp	.	.	.	.	.	.	.	.	8x'	pp	.	.	.	.	.	.	8cc')	.
.	.	16G-'L	.	8r	.	16d-'L	.	8r	.	16e-'L	.	8r	.	16cc-X'L	.	8r	.	.	.	.	.	.	.	.	.	8r	.	.	.	.	.	.	.	8r	.
.	.	16G-'JJ	.	.	.	16d-'JJ	.	.	.	16e-'JJ	.	.	.	16cc-'JJ	.	.	.	.	.	.	.	.	.	.	.	.	.	.	.	.	.	.	.	.	.
=337	=337	=337	=337	=337	=337	=337	=337	=337	=337	=337	=337	=337	=337	=337	=337	=337	=337	=337	=337	=337	=337	=337	=337	=337	=337	=337	=337	=337	=337	=337	=337	=337	=337	=337	=337
.	.	.	.	.	.	.	.	.	.	.	.	.	.	.	.	.	.	.	.	.	.	.	.	.	.	.	.	.	.	.	.	.	.	(8qcc/	.
4.r	.	8G-'L	.	8G-'	.	8d-'L	.	8d-'	.	8e-'L	.	8e-'	.	8cc-X'L	.	8cc-X'	.	4.r	4.r	.	4.r	4.r	.	4.r	.	8x'	.	4.G-X_	.	4.r	.	8r	.	8cc-X')	.
.	.	16G-'L	.	8r	.	16d-'L	.	8r	.	16e-'L	.	8r	.	16b--'L	.	8r	.	.	.	.	.	.	.	.	.	8r	.	.	.	.	.	8r	.	8r	.
.	.	16G-'J	.	.	.	16d-'J	.	.	.	16e-'J	.	.	.	16b--'J	.	.	.	.	.	.	.	.	.	.	.	.	.	.	.	.	.	.	.	.	.
.	.	.	.	.	.	.	.	.	.	.	.	.	.	.	.	.	.	.	.	.	.	.	.	.	.	.	.	.	.	.	.	.	.	(8qcc-/	.
.	.	8G-'J	.	8G-'	.	8d-'J	.	8d-'	.	8e-'J	.	8e-'	.	8b--'J	.	8cc--'	.	.	.	.	.	.	.	.	.	8x'	.	.	.	.	.	16r	.	8b--')	.
.	.	.	.	.	.	.	.	.	.	.	.	.	.	.	.	.	.	.	.	.	.	.	.	.	.	.	.	.	.	.	.	(16cc	<	.	.
=338	=338	=338	=338	=338	=338	=338	=338	=338	=338	=338	=338	=338	=338	=338	=338	=338	=338	=338	=338	=338	=338	=338	=338	=338	=338	=338	=338	=338	=338	=338	=338	=338	=338	=338	=338
4.r	.	16G-'LL	.	8r	.	16d-'LL	.	8r	.	16e-'LL	.	8r	.	16a-'LL	.	8r	.	4.r	4.r	.	4.r	4.r	.	4.r	.	8r	.	8G-X]	.	[4.G-X	p	16dd-LL	.	8r	.
.	.	16G-'J	.	.	.	16d-'J	.	.	.	16e-'J	.	.	.	16a-'J	.	.	.	.	.	.	.	.	.	.	.	.	.	.	.	.	.	16ee-JJ	.	.	.
.	.	.	.	.	.	.	.	.	.	.	.	.	.	.	.	.	.	.	.	.	.	.	.	.	.	.	.	.	.	.	.	.	.	(8qb-X/	.
.	.	8G-'	.	8G-'	.	8d-'	.	8d-'	.	8e-'	.	8e-'	.	8a-'	.	8a-'	.	.	.	.	.	.	.	.	.	8x'	.	8r	.	.	.	[4ff)	[[	8a-')	.
.	.	16G-'L	.	8r	.	16d-'L	.	8r	.	16e-'L	.	8r	.	16b--'L	.	8r	.	.	.	.	.	.	.	.	.	8r	.	8r	.	.	.	.	.	8r	.
.	.	16G-'JJ	.	.	.	16d-'JJ	.	.	.	16e-'JJ	.	.	.	16b--'JJ	.	.	.	.	.	.	.	.	.	.	.	.	.	.	.	.	.	.	.	.	.
=339	=339	=339	=339	=339	=339	=339	=339	=339	=339	=339	=339	=339	=339	=339	=339	=339	=339	=339	=339	=339	=339	=339	=339	=339	=339	=339	=339	=339	=339	=339	=339	=339	=339	=339	=339
.	.	.	.	.	.	.	.	.	.	.	.	.	.	.	.	.	.	.	.	.	.	.	.	.	.	.	.	.	.	.	.	.	.	(8qcc/	.
4.r	.	8G-'L	<	8G-'	<	8d-'L	<	8d-'	<	8e-'L	<	8e-'	<	8b--'L	<	8b--'	<	4.r	4.r	.	4.r	4.r	.	8r	.	8x'	<	4.r	.	4.G-X_	.	8ff]	[	8b-X')	.
.	.	24G-'L	.	8r	.	24d-'L	.	8r	.	24e-'L	.	8r	.	24cc-X'L	.	8r	.	.	.	.	.	.	.	8x'	p	8r	.	.	.	.	.	8r	.	8r	.
.	.	24G-'	.	.	.	24d-'	.	.	.	24e-'	.	.	.	24cc-'	.	.	.	.	.	.	.	.	.	.	.	.	.	.	.	.	.	.	.	.	.
.	.	24G-'J	.	.	.	24d-'J	.	.	.	24e-'J	.	.	.	24cc-'J	.	.	.	.	.	.	.	.	.	.	.	.	.	.	.	.	.	.	.	.	.
.	.	.	.	.	.	.	.	.	.	.	.	.	.	.	.	.	.	.	.	.	.	.	.	.	.	.	.	.	.	.	.	.	.	(8qdd-/	.
.	.	8G-'J	[[	8G-'	[[	8d-'J	[[	8d-'	[[	8e-'J	[[	8e-'	[[	8cc-'J	[[	8cc-X'	[[	.	.	.	.	.	.	8r	.	8x'	[[	.	.	.	.	8r	.	8cc-X')	.
=340	=340	=340	=340	=340	=340	=340	=340	=340	=340	=340	=340	=340	=340	=340	=340	=340	=340	=340	=340	=340	=340	=340	=340	=340	=340	=340	=340	=340	=340	=340	=340	=340	=340	=340	=340
!	!	!	!	!LO:TX:t=arco	!	!	!	!LO:TX:t=arco	!	!	!	!LO:TX:t=arco	!	!	!	!LO:TX:t=arco	!	!	!	!	!	!	!	!	!	!	!	!	!	!	!	!	!	!	!
4.r	.	8r	[	16G-'LL	[	8r	[	16d-'LL	[	8r	[	16e-'LL	[	8r	[	16ccn'LL	[	4.r	4.r	.	4.r	4.r	.	4.r	.	8r	[	4.r	.	4.G-X_	.	8r	.	8r	.
.	.	.	.	16G-'J	.	.	.	16d-'J	.	.	.	16e-'J	.	.	.	16cc'J	.	.	.	.	.	.	.	.	.	.	.	.	.	.	.	.	.	.	.
!	!	!LO:TX:t=pizz.	!	!	!	!LO:TX:t=pizz.	!	!	!	!LO:TX:t=pizz.	!	!	!	!LO:TX:t=pizz.	!	!	!	!	!	!	!	!	!	!	!	!	!	!	!	!	!	!	!	!	!
.	.	.	.	.	.	.	.	.	.	.	.	.	.	.	.	.	.	.	.	.	.	.	.	.	.	.	.	.	.	.	.	.	.	(8qdd-/	.
.	.	8G-'	pp	8G-'	.	8d-'	pp	8d-'	.	8e-'	pp	8e-'	.	8ccn'	pp	8cc'	.	.	.	.	.	.	.	.	.	8x'	pp	.	.	.	.	16r	.	8ccn')	.
.	.	.	.	.	.	.	.	.	.	.	.	.	.	.	.	.	.	.	.	.	.	.	.	.	.	.	.	.	.	.	.	(16ccLL	p	.	.
.	.	8r	.	16G-'L	.	8r	.	16d-'L	.	8r	.	16e-'L	.	8r	.	16cc-X'L	.	.	.	.	.	.	.	.	.	8r	.	.	.	.	.	16dd-	.	8r	.
.	.	.	.	16G-'JJ	.	.	.	16d-'JJ	.	.	.	16e-'JJ	.	.	.	16cc-'JJ	.	.	.	.	.	.	.	.	.	.	.	.	.	.	.	16ee-JJ	.	.	.
=341	=341	=341	=341	=341	=341	=341	=341	=341	=341	=341	=341	=341	=341	=341	=341	=341	=341	=341	=341	=341	=341	=341	=341	=341	=341	=341	=341	=341	=341	=341	=341	=341	=341	=341	=341
.	.	.	.	.	.	.	.	.	.	.	.	.	.	.	.	.	.	.	.	.	.	.	.	.	.	.	.	.	.	.	.	.	.	(8qcc/	.
4.r	.	8G-'	.	8G-'L	.	8d-'	.	8d-'L	.	8e-'	.	8e-'L	.	8cc-X'	.	8cc-X'L	.	4.r	4.r	.	4.r	4.r	.	4.r	.	8x'	.	4.r	.	4.G-X_	.	16ffLL	<	8cc-X')	.
.	.	.	.	.	.	.	.	.	.	.	.	.	.	.	.	.	.	.	.	.	.	.	.	.	.	.	.	.	.	.	.	16gg-	.	.	.
.	.	8r	.	16G-'L	.	8r	.	16d-'L	.	8r	.	16e-'L	.	8r	.	16b--'L	.	.	.	.	.	.	.	.	.	8r	.	.	.	.	.	16aa-	.	8r	.
.	.	.	.	16G-'J	.	.	.	16d-'J	.	.	.	16e-'J	.	.	.	16b--'J	.	.	.	.	.	.	.	.	.	.	.	.	.	.	.	16bb--	.	.	.
.	.	.	.	.	.	.	.	.	.	.	.	.	.	.	.	.	.	.	.	.	.	.	.	.	.	.	.	.	.	.	.	.	.	(8qcc-/	.
.	.	8G-'	.	8G-'J	.	8d-'	.	8d-'J	.	8e-'	.	8e-'J	.	8cc--'	.	8b--'J	.	.	.	.	.	.	.	.	.	8x'	.	.	.	.	.	16aa-	.	8b--')	.
.	.	.	.	.	.	.	.	.	.	.	.	.	.	.	.	.	.	.	.	.	.	.	.	.	.	.	.	.	.	.	.	16gg-JJ)	[[	.	.
==	==	==	==	==	==	==	==	==	==	==	==	==	==	==	==	==	==	==	==	==	==	==	==	==	==	==	==	==	==	==	==	==	==	==	==
*-	*-	*-	*-	*-	*-	*-	*-	*-	*-	*-	*-	*-	*-	*-	*-	*-	*-	*-	*-	*-	*-	*-	*-	*-	*-	*-	*-	*-	*-	*-	*-	*-	*-	*-	*-
!!!CDT: 1862/08/22-1918/03/25
!!!CBL: St Germain-en-Laye, France
!!!CDL: Paris, France
!!!CNT: French
!!!AGN: Stage; Ballet
!!!MCN: Monteux, Pierre
!!!MDT: 1913/05/15
!!!MGN: unknown
!!!MLC: Paris, France
!!!MPD: 1913
!!!MPN:
!!!ODT: 1913
!!!PDT: 1914
!!!excerpt-start-measure: 335
!!!excerpt-end-measure: 341
!!!excerpt-start-time: 7:46
!!!excerpt-end-time: 7:54
!!!system-decoration: [(s1,s2)][(s3,s4)][(s5,s6)]{(s7,s8)}{(s9,s10)}[(s11,s12,s13,s14,s15,s16,s17,s18,s19)]
!!!ONB: Converted from MusicXML on 2020/01/19 and edited by Craig Stuart Sapp
!!!EEV: 2020/01/19
